.icons/Gruvbox-Plus-Dark/apps/16/guitarix.svg

<svg xmlns="http://www.w3.org/2000/svg" width="16" height="16" version="1.1">
 <defs>
  <style id="current-color-scheme" type="text/css">
   .ColorScheme-Text { color:#ebdbb2; } .ColorScheme-Highlight { color:#458588; }
  </style>
 </defs>
 <path style="fill:currentColor" class="ColorScheme-Text" d="M 1.7011719 5 C 1.3133718 5 1 5.343455 1 5.7695312 L 1 14.230469 C 1 14.656545 1.3133718 15 1.7011719 15 L 14.298828 15 C 14.686628 15 15 14.656545 15 14.230469 L 15 5.7695312 C 15 5.3434548 14.686628 5 14.298828 5 L 1.7011719 5 z M 5 7 A 3 3 0 0 1 8 10 A 3 3 0 0 1 11 7 A 3 3 0 0 1 14 10 A 3 3 0 0 1 11 13 A 3 3 0 0 1 8 10 A 3 3 0 0 1 5 13 A 3 3 0 0 1 2 10 A 3 3 0 0 1 5 7 z M 5 9 A 1 1 0 0 0 4 10 A 1 1 0 0 0 5 11 A 1 1 0 0 0 6 10 A 1 1 0 0 0 5 9 z M 11 9 A 1 1 0 0 0 10 10 A 1 1 0 0 0 11 11 A 1 1 0 0 0 12 10 A 1 1 0 0 0 11 9 z"/>
 <path style="fill:currentColor" class="ColorScheme-Text" d="M 1.7011719 1 C 1.3133718 1 1 1.2558208 1 1.5722656 L 1 4.4277344 C 1 4.7441793 1.3133718 5 1.7011719 5 L 14.298828 5 C 14.686628 5 15 4.7441792 15 4.4277344 L 15 1.5722656 C 15 1.2558208 14.686628 1 14.298828 1 L 1.7011719 1 z M 2.7460938 2 L 13.253906 2 C 13.667507 2 14 2.201872 14 2.4511719 L 14 3.5488281 C 14 3.798128 13.667507 4 13.253906 4 L 2.7460938 4 C 2.3324929 4 2 3.798128 2 3.5488281 L 2 2.4511719 C 2 2.2018719 2.332493 2 2.7460938 2 z M 3.4003906 2.5996094 A 0.4 0.4 0 0 0 3 3 A 0.4 0.4 0 0 0 3.4003906 3.4003906 A 0.4 0.4 0 0 0 3.8007812 3 A 0.4 0.4 0 0 0 3.4003906 2.5996094 z M 5 2.5996094 A 0.4 0.4 0 0 0 4.5996094 3 A 0.4 0.4 0 0 0 5 3.4003906 A 0.4 0.4 0 0 0 5.4003906 3 A 0.4 0.4 0 0 0 5 2.5996094 z M 6.4003906 2.5996094 A 0.4 0.4 0 0 0 6 3 A 0.4 0.4 0 0 0 6.4003906 3.4003906 A 0.4 0.4 0 0 0 6.8007812 3 A 0.4 0.4 0 0 0 6.4003906 2.5996094 z M 12.199219 2.5996094 L 12.199219 3.4003906 L 13 3.4003906 L 13 2.5996094 L 12.199219 2.5996094 z"/>
</svg>

<svg width="16" height="16" version="1.1" xmlns="http://www.w3.org/2000/svg">
  <defs>
    <style type="text/css" id="current-color-scheme">.ColorScheme-Text { color:#ebdbb2; } .ColorScheme-Highlight { color:#458588; }</style>
  </defs>
  <path class="ColorScheme-Text" d="m1.701 1c-0.3878 0-0.7012 0.2558-0.7012 0.5723v2.855c0 0.3164 0.3134 0.5723 0.7012 0.5723-0.3878 0-0.7012 0.3435-0.7012 0.7695v8.461c0 0.4261 0.3134 0.7695 0.7012 0.7695h12.6c0.3878 0 0.7012-0.3435 0.7012-0.7695v-8.461c0-0.4261-0.3134-0.7695-0.7012-0.7695 0.3878 0 0.7012-0.2558 0.7012-0.5723v-2.855c0-0.3164-0.3134-0.5723-0.7012-0.5723h-12.6zm1.045 1h10.51c0.4136 0 0.7461 0.2019 0.7461 0.4512v1.098c0 0.2493-0.3325 0.4512-0.7461 0.4512h-10.51c-0.4136 0-0.7461-0.2019-0.7461-0.4512v-1.098c0-0.2493 0.3325-0.4512 0.7461-0.4512zm0.6543 0.5996a0.4 0.4 0 0 0-0.4004 0.4004 0.4 0.4 0 0 0 0.4004 0.4004 0.4 0.4 0 0 0 0.4004-0.4004 0.4 0.4 0 0 0-0.4004-0.4004zm1.6 0a0.4 0.4 0 0 0-0.4004 0.4004 0.4 0.4 0 0 0 0.4004 0.4004 0.4 0.4 0 0 0 0.4004-0.4004 0.4 0.4 0 0 0-0.4004-0.4004zm1.4 0a0.4 0.4 0 0 0-0.4004 0.4004 0.4 0.4 0 0 0 0.4004 0.4004 0.4 0.4 0 0 0 0.4004-0.4004 0.4 0.4 0 0 0-0.4004-0.4004zm5.799 0v0.8008h0.8008v-0.8008h-0.8008zm-7.199 4.4a3 3 0 0 1 3 3 3 3 0 0 1 3-3 3 3 0 0 1 3 3 3 3 0 0 1-3 3 3 3 0 0 1-3-3 3 3 0 0 1-3 3 3 3 0 0 1-3-3 3 3 0 0 1 3-3zm0 2a1 1 0 0 0-1 1 1 1 0 0 0 1 1 1 1 0 0 0 1-1 1 1 0 0 0-1-1zm6 0a1 1 0 0 0-1 1 1 1 0 0 0 1 1 1 1 0 0 0 1-1 1 1 0 0 0-1-1z" fill="currentColor"/>
</svg>
